!!!SOCIAL_FUNCTION:	songs used in the treatment of the sick
!!!PDT:	1922
!!!OTL: No_63_Song_Used_in_Treatment_of_Sick_(l).krn
!!!REG: Southwest
!!!LANG: Non-Tone
!!!LING_GROUP: Uto-Aztecan
**kern
*staff1
=1-
*clefG2
*k[]
*M3/4
8g/L
8g/J
8e/L
8e/J
8e/L
8e/J
=2||
*M2/4
8g/L
8g/J
8d/L
8c/J
=3
8c/L
8c/J
8c/L
8c/J
=4||
*M3/4
8e/L
8e/J
8d/L
8d/J
8c/L
8c/J
=5||
*M2/4
8d/L
8d/J
8d/L
8d/J
=6
8c/L
8c/J
4c/
=7
2c/
=8
4d/
4c/
=9||
*M3/4
8c/L
8c/J
8c/L
8c/J
4c/
=10||
*M2/4
4c/
4c/
=11
8g/L
8g/J
8g/L
8g/J
=12||
*M3/4
8g/L
8e/J
4e/
4r
=13
8cc\
24cc/LL
24g/
24f/JJ
16e/LL
16e/J
8e/J
8g/
24g/LL
24e/
24d/JJ
=14||
*M2/4
8e/L
8d/J
8c/L
8c/J
=15||
*M3/4
8c/L
8c/J
8c/L
8c/J
8d/L
16c/L
16c/JJ
=16
4G/
8G/L
8G/J
4G/
=17
8d/L
8d/J
8c/L
8c/J
8c/L
8c/J
=18||
*M2/4
8d/L
8d/J
8d/L
8c/J
=19||
*M3/4
4c/
8c/L
8c/J
4c/
=20||
*M2/4
4d/
8c/L
8c/J
=21
8c/L
8c/J
4c/
=22
2c/
==
*-
